libs/ui/packages/crypto-icons/src/svg/JVT.svg

<svg width="24" height="24" viewBox="0 0 24 24" fill="none" xmlns="http://www.w3.org/2000/svg">
<path fill-rule="evenodd" clip-rule="evenodd" d="M3.29199 12C3.29199 7.05851 7.24127 3.04004 12.1284 3.04004C17.0156 3.04004 20.9648 7.05851 20.9648 12C20.9648 16.9415 17.0156 20.96 12.1284 20.96C7.24127 20.96 3.29199 16.9415 3.29199 12ZM12.1284 4.04004C7.80738 4.04004 4.29199 7.59688 4.29199 12C4.29199 16.4032 7.80738 19.96 12.1284 19.96C16.4495 19.96 19.9648 16.4032 19.9648 12C19.9648 7.59688 16.4495 4.04004 12.1284 4.04004Z" fill="white"/>
<path d="M12.5644 7.39014H11.7758C11.6187 7.39014 11.4912 7.51758 11.4912 7.67478V16.2987C11.4912 16.4559 11.6187 16.5834 11.7758 16.5834H12.5644C12.7216 16.5834 12.849 16.4559 12.849 16.2987V7.67478C12.849 7.51758 12.7216 7.39014 12.5644 7.39014Z" fill="white"/>

</svg>

<svg xmlns="http://www.w3.org/2000/svg" width="24" height="24" viewBox="0 0 24 24" fill="none"><path fill="#fff" fill-rule="evenodd" d="M3.292 12c0-4.941 3.95-8.96 8.836-8.96 4.888 0 8.837 4.019 8.837 8.96s-3.95 8.96-8.837 8.96S3.292 16.942 3.292 12m8.836-7.96c-4.32 0-7.836 3.557-7.836 7.96s3.515 7.96 7.836 7.96c4.322 0 7.837-3.557 7.837-7.96s-3.515-7.96-7.837-7.96" clip-rule="evenodd"/><path fill="#fff" d="M12.564 7.39h-.788a.285.285 0 0 0-.285.285v8.624c0 .157.128.284.285.284h.788a.285.285 0 0 0 .285-.284V7.675a.285.285 0 0 0-.285-.285"/></svg>
